<?xml version="1.0" encoding="UTF-8"?>
<map version="1.10" tiledversion="1.12.1" orientation="orthogonal" renderorder="right-down" width="24" height="16" tilewidth="50" tileheight="50" infinite="0" nextlayerid="13" nextobjectid="135">
 <layer id="1" name="Background" width="24" height="16">
  <data encoding="csv">
0,0,0,0,0,0,0,0,0,0,0,0,0,0,0,0,0,0,0,0,0,0,0,0,
0,0,0,0,0,0,0,0,0,0,0,0,0,0,0,0,0,0,0,0,0,0,0,0,
0,0,0,0,0,0,0,0,0,0,0,0,0,0,0,0,0,0,0,0,0,0,0,0,
0,0,0,0,0,0,0,0,0,0,0,0,0,0,0,0,0,0,0,0,0,0,0,0,
0,0,0,0,0,0,0,0,0,0,0,0,0,0,0,0,0,0,0,0,0,0,0,0,
0,0,0,0,0,0,0,0,0,0,0,0,0,0,0,0,0,0,0,0,0,0,0,0,
0,0,0,0,0,0,0,0,0,0,0,0,0,0,0,0,0,0,0,0,0,0,0,0,
0,0,0,0,0,0,0,0,0,0,0,0,0,0,0,0,0,0,0,0,0,0,0,0,
0,0,0,0,0,0,0,0,0,0,0,0,0,0,0,0,0,0,0,0,0,0,0,0,
0,0,0,0,0,0,0,0,0,0,0,0,0,0,0,0,0,0,0,0,0,0,0,0,
0,0,0,0,0,0,0,0,0,0,0,0,0,0,0,0,0,0,0,0,0,0,0,0,
0,0,0,0,0,0,0,0,0,0,0,0,0,0,0,0,0,0,0,0,0,0,0,0,
0,0,0,0,0,0,0,0,0,0,0,0,0,0,0,0,0,0,0,0,0,0,0,0,
0,0,0,0,0,0,0,0,0,0,0,0,0,0,0,0,0,0,0,0,0,0,0,0,
0,0,0,0,0,0,0,0,0,0,0,0,0,0,0,0,0,0,0,0,0,0,0,0,
0,0,0,0,0,0,0,0,0,0,0,0,0,0,0,0,0,0,0,0,0,0,0,0
</data>
 </layer>
 <objectgroup id="2" name="Platforms">
  <object id="37" x="0" y="0" width="1200" height="40"/>
  <object id="38" x="0" y="0" width="40" height="720"/>
  <object id="39" x="1160" y="0" width="40" height="720"/>
  <object id="1" x="0" y="720" width="1200" height="80"/>
  <object id="2" x="55" y="650" width="235" height="32"/>
  <object id="3" x="350" y="610" width="170" height="32"/>
  <object id="4" x="730" y="610" width="170" height="32"/>
  <object id="5" x="970" y="545" width="170" height="32"/>
  <object id="10" x="780" y="465" width="190" height="32"/>
  <object id="11" x="520" y="420" width="190" height="32"/>
  <object id="12" x="260" y="375" width="190" height="32"/>
  <object id="13" x="70" y="315" width="180" height="32"/>
  <object id="14" x="330" y="260" width="170" height="32"/>
  <object id="25" x="560" y="220" width="230" height="32"/>
  <object id="26" x="850" y="260" width="295" height="32"/>
  <object id="40" x="230" y="560" width="170" height="32"/>
  <object id="41" x="420" y="515" width="150" height="32"/>
  <object id="42" x="260" y="190" width="140" height="32"/>
 </objectgroup>
 <objectgroup id="3" name="Blue Traps">
  <object id="6" x="290" y="690" width="60" height="30"/>
  <object id="17" x="520" y="690" width="130" height="30"/>
  <object id="22" x="900" y="690" width="145" height="30"/>
  <object id="30" x="840" y="435" width="70" height="30"/>
  <object id="31" x="345" y="345" width="75" height="30"/>
  <object id="32" x="670" y="190" width="45" height="30"/>
  <object id="33" x="955" y="230" width="75" height="30"/>
 </objectgroup>
 <objectgroup id="4" name="Red Traps">
  <object id="7" x="640" y="390" width="70" height="30"/>
 </objectgroup>
 <objectgroup id="5" name="Spawn">
  <object id="8" name="Start" x="105" y="650"/>
 </objectgroup>
 <objectgroup id="6" name="Exit">
  <object id="9" name="Finish" x="995" y="70" width="150" height="190"/>
 </objectgroup>
 <objectgroup id="7" name="Keys">
  <object id="18" name="Key" x="300" y="140" width="50" height="50"/>
 </objectgroup>
 <objectgroup id="8" name="Buttons">
  <object id="19" name="BridgeButton" x="470" y="495" width="60" height="20"/>
 </objectgroup>
 <objectgroup id="9" name="Bridge Platforms">
  <object id="20" x="520" y="610" width="105" height="28"/>
  <object id="21" x="625" y="610" width="105" height="28"/>
 </objectgroup>
 <objectgroup id="10" name="Buttons 2">
  <object id="34" name="UpperBridgeButton" x="335" y="170" width="60" height="20"/>
 </objectgroup>
 <objectgroup id="11" name="Bridge Platforms 2">
  <object id="35" x="500" y="260" width="90" height="28"/>
  <object id="36" x="760" y="260" width="90" height="28"/>
 </objectgroup>
 <objectgroup id="12" name="Entrance">
  <object id="63" name="Entrance" x="45" y="460" width="150" height="190"/>
 </objectgroup>
</map>
