<?xml version="1.0" encoding="UTF-8"?>
<map version="1.10" tiledversion="1.12.1" orientation="orthogonal" renderorder="right-down" width="24" height="16" tilewidth="50" tileheight="50" infinite="0" nextlayerid="6" nextobjectid="12">
 <tileset firstgid="1" source="BGnw.tsx"/>
 <layer id="1" name="Tile Layer 1" width="24" height="16">
  <data encoding="csv">
1,0,0,0,0,0,0,0,0,0,0,0,0,0,0,0,0,0,0,0,0,0,0,0,
0,0,0,0,0,0,0,0,0,0,0,0,0,0,0,0,0,0,0,0,0,0,0,0,
0,0,0,0,0,0,0,0,0,0,0,0,0,0,0,0,0,0,0,0,0,0,0,0,
0,0,0,0,0,0,0,0,0,0,0,0,0,0,0,0,0,0,0,0,0,0,0,0,
0,0,0,0,0,0,0,0,0,0,0,0,0,0,0,0,0,0,0,0,0,0,0,0,
0,0,0,0,0,0,0,0,0,0,0,0,0,0,0,0,0,0,0,0,0,0,0,0,
0,0,0,0,0,0,0,0,0,0,0,0,0,0,0,0,0,0,0,0,0,0,0,0,
0,0,0,0,0,0,0,0,0,0,0,0,0,0,0,0,0,0,0,0,0,0,0,0,
0,0,0,0,0,0,0,0,0,0,0,0,0,0,0,0,0,0,0,0,0,0,0,0,
0,0,0,0,0,0,0,0,0,0,0,0,0,0,0,0,0,0,0,0,0,0,0,0,
0,0,0,0,0,0,0,0,0,0,0,0,0,0,0,0,0,0,0,0,0,0,0,0,
0,0,0,0,0,0,0,0,0,0,0,0,0,0,0,0,0,0,0,0,0,0,0,0,
0,0,0,0,0,0,0,0,0,0,0,0,0,0,0,0,0,0,0,0,0,0,0,0,
0,0,0,0,0,0,0,0,0,0,0,0,0,0,0,0,0,0,0,0,0,0,0,0,
0,0,0,0,0,0,0,0,0,0,0,0,0,0,0,0,0,0,0,0,0,0,0,0,
0,0,0,0,0,0,0,0,0,0,0,0,0,0,0,0,0,0,0,0,0,0,0,0
</data>
 </layer>
 <objectgroup id="2" name="Up Walls">
  <object id="2" x="96" y="110" width="446" height="20"/>
  <object id="3" x="522" y="240" width="676" height="26"/>
 </objectgroup>
 <objectgroup id="3" name="Left Walls">
  <object id="4" x="92" y="120" width="24" height="504"/>
  <object id="5" x="618" y="534" width="24" height="264"/>
 </objectgroup>
 <objectgroup id="4" name="Right Walls">
  <object id="6" x="522" y="110" width="20" height="156"/>
  <object id="10" x="524" y="534" width="18" height="88"/>
  <object id="11" x="1286" y="316"/>
 </objectgroup>
 <objectgroup id="5" name="Bottom Walls">
  <object id="8" x="90" y="604" width="452" height="18"/>
  <object id="9" x="526" y="534" width="116" height="16"/>
 </objectgroup>
</map>
