<?xml version="1.0" encoding="UTF-8"?>
<map version="1.10" tiledversion="1.12.1" orientation="orthogonal" renderorder="right-down" width="24" height="16" tilewidth="50" tileheight="50" infinite="0" nextlayerid="6" nextobjectid="13">
 <tileset firstgid="1" source="BGne.tsx"/>
 <layer id="1" name="Tile Layer 1" width="24" height="16">
  <data encoding="csv">
1,0,0,0,0,0,0,0,0,0,0,0,0,0,0,0,0,0,0,0,0,0,0,0,
0,0,0,0,0,0,0,0,0,0,0,0,0,0,0,0,0,0,0,0,0,0,0,0,
0,0,0,0,0,0,0,0,0,0,0,0,0,0,0,0,0,0,0,0,0,0,0,0,
0,0,0,0,0,0,0,0,0,0,0,0,0,0,0,0,0,0,0,0,0,0,0,0,
0,0,0,0,0,0,0,0,0,0,0,0,0,0,0,0,0,0,0,0,0,0,0,0,
0,0,0,0,0,0,0,0,0,0,0,0,0,0,0,0,0,0,0,0,0,0,0,0,
0,0,0,0,0,0,0,0,0,0,0,0,0,0,0,0,0,0,0,0,0,0,0,0,
0,0,0,0,0,0,0,0,0,0,0,0,0,0,0,0,0,0,0,0,0,0,0,0,
0,0,0,0,0,0,0,0,0,0,0,0,0,0,0,0,0,0,0,0,0,0,0,0,
0,0,0,0,0,0,0,0,0,0,0,0,0,0,0,0,0,0,0,0,0,0,0,0,
0,0,0,0,0,0,0,0,0,0,0,0,0,0,0,0,0,0,0,0,0,0,0,0,
0,0,0,0,0,0,0,0,0,0,0,0,0,0,0,0,0,0,0,0,0,0,0,0,
0,0,0,0,0,0,0,0,0,0,0,0,0,0,0,0,0,0,0,0,0,0,0,0,
0,0,0,0,0,0,0,0,0,0,0,0,0,0,0,0,0,0,0,0,0,0,0,0,
0,0,0,0,0,0,0,0,0,0,0,0,0,0,0,0,0,0,0,0,0,0,0,0,
0,0,0,0,0,0,0,0,0,0,0,0,0,0,0,0,0,0,0,0,0,0,0,0
</data>
 </layer>
 <objectgroup id="2" name="Right Walls">
  <object id="1" x="666" y="106" width="22" height="158"/>
  <object id="2" x="1074" y="110" width="18" height="438"/>
  <object id="3" x="528" y="528" width="22" height="132"/>
 </objectgroup>
 <objectgroup id="3" name="Left Walls">
  <object id="4" x="368" y="108" width="26" height="154"/>
  <object id="5" x="774" y="110" width="26" height="154"/>
 </objectgroup>
 <objectgroup id="4" name="Bottom Walls">
  <object id="6" x="530" y="530" width="560" height="18"/>
 </objectgroup>
 <objectgroup id="5" name="Up Walls">
  <object id="7" x="-4" y="240" width="400" height="22"/>
  <object id="8" x="368" y="108" width="318" height="26"/>
  <object id="9" x="776" y="110" width="312" height="30"/>
  <object id="10" x="528" y="636" width="666" height="26"/>
  <object id="12" x="668" y="244" width="132" height="18"/>
 </objectgroup>
</map>
